X:1
T:Eichendorff-Lieder
T:Verschwiegene Liebe
T:3. Verschwiegene Liebe
T:Hugo Wolf
T:Eichendorff-Lieder
T:Joseph von Eichendorff (trans. Bernhoff)
T:OpenScore (CC0) 
T:OpenScore (CC0) 
T:OpenScore (CC0) 
T:OpenScore (CC0) 
C:Hugo Wolf
Z:Joseph von Eichendorff
Z:OpenScore (CC0)
Z:
%%score ( 1 2 ) { ( 3 6 ) | ( 4 5 ) }
L:1/8
Q:1/4=80
M:12/8
K:Bb
V:1 treble nm="Voice"
V:2 treble 
V:3 treble nm="Piano"
V:6 treble 
V:4 treble 
V:5 treble 
V:1
"^Sanfte Bewegung und immer sehr zart" z | z12 | z12 | z6 z2 z z"^leise"!p! d d | c3 B2 B A3 D3 | %5
w: |||Ü- ber|Wip- fel und Saa- ten|
w: |||Thro' the|glam- our of even- ing,|
 c2 c e2- e/ B/ d3- d z A ||[K:D] ^G3 G2 G B3 B2 A | ^G2- G/ G/ G3 B6- | %8
w: in den Glanz * hin- ein, _ wer|mag sie er- ra- ten, wer|hol- * te sie ein?|
w: o'er each wood- * ed height, * who'll|tell us their~ mean- ing, or|stay their * swift flight?|
[M:6/8] B3 z z C[Q:1/4=70]"_rit." ||[M:12/8] C3 F2 ^A (c2- c/^d/) c z!p! F | %10
w: _ Ge-|dan- ken sich wie- * * gen, die|
w: _ Fond|love- thoughts con- ceal- * * ing, to|
 F3 =A2 =d!pp! f3 f2 _B |!<(! f6 A3 A3!<)! |!f! d6 z3 z z!mp! d ||[K:Bb] c3 B2 B A3 D3 | %14
w: Nacht ist ver- schwie- gen, Ge-|dan- ken sind|frei. Er-|rät' es nur Ei- ne,|
w: Night all re- veal- ing, sweet|fan- cy must|roam! An|one maid would~ share them,|
 c2 c e2- e/ B/ d3- d z A ||[K:D] ^G3 G2 G B3 B2 A | ^G2- G/ G/ G3 B6- | %17
w: wer an sie _ ge- dacht, _ beim|Rau- schen der Hai- ne, wenn|nie- * mand mehr wacht,|
w: read those~ thoughts _ a- right _ ye|breez- es, oh, bear them, nor|stay * their swift flight!|
[M:6/8] B3 z C C[Q:1/4=70]"_rit." ||[M:12/8] C3 F2 ^A (c2- c/^d/) c2 F | F3 =A2 d!pp! f3 f2 _B | %20
w: _ als die|Wol- ken, die flie- * * gen, mein|Lieb ist ver- schwie- gen und|
w: _ be ye|clouds their al- li- * * ant, my|love is as si- lent and|
 f6- f2!p! e- e2 A | d12- | d z z z2 z z6 |[M:6/8] z6 |[M:12/8] z12 | z12 | z12 |] %27
w: schön _ wie _ die|Nacht.|_|||||
w: fair _ as _ the|Night.|_|||||
V:2
 x | x12 | x12 | x12 | x12 | x12 ||[K:D] x12 | x2 ^G x2 x x2 x x x2 |[M:6/8] x6 ||[M:12/8] x12 | %10
 x12 | x12 | x12 ||[K:Bb] x12 | x12 ||[K:D] x12 | x12 |[M:6/8] x6 ||[M:12/8] x12 | x12 | %20
 x2!<(! x2!<)!!>(! x2!>)! x2 x4 | x12 | x12 |[M:6/8] x6 |[M:12/8] x6 x3 x3 | x12 | x12 |] %27
V:3
 z | z!pp! (eg e'ge' d'ad' a'2) z | z (eg e'ge' d'ad' a'2) z |!pp! z (a=e' a'2) z z (ad' a'2) z | %4
 z (eg e'ge' d'ad' a'3) | z (eg bgb d'ad' a'2) z || %6
[K:D]!p! ([^G^d]!<(!^g[Gd] g!>(![Gd]!<)!g [=Bf]b[Bf] b2) z!>)! | %7
!<(! ([^G^d]^g[Gd] g[Gd]!<)!g!mf!!>(! [=Bf]b[Bf] b[Bf]!>)!b | %8
[M:6/8]!pp! [B^g][^e^c'][Bg] [ec']2) z || %9
[M:12/8]!p! ([^A,F][C^A][A,F] [CA][A,F][CA] [A,F][CA][A,F] [CA]) z z | %10
!pp! ([=A,F][D=A][A,F] [DA][A,F][DA] [_B,F][D_B][B,F] [DB]) z z | %11
!p!!<(! ([=B,G][D=B][B,G]!<)! [DB]) z z!mf!!<(! ([GA]e[GA]!<)! e2) z | %12
!f! z (D[A,E] [DF][EA][Fd]!>(! [Ae][df][ea] [df][ea][fd'])!>)! || %13
[K:Bb] z!pp! (eg e'ge' d'ad' a'2) z | z (eg bgb d'ad' a'2) z || %15
[K:D]!p! ([^G^d]!<(!^g[Gd] g[Gd]!<)!!mf!g!>(! [=Bf]b[Bf]!>)! b2)!p! z | %16
!<(! ([^G^d]^g[Gd] g[Gd]!<)!g!mf!!>(! [=Bf]b[Bf] b[Bf]!>)!!p!b | %17
[M:6/8]!pp! [B^g][^ec'][Bg] [ec']2) z || %18
[M:12/8]!p! ([^A,F][C^A][A,F] [CA][A,F][CA] [A,F][CA][A,F] [CA]) z z | %19
!pp! ([=A,F][D=A][A,F] [DA][A,F][DA] [_B,F][D_B][B,F] [DB]) z z | %20
!p!!<(! ([=B,G][D=B][B,G] [DB])!<)! z z!mf!!<(! ([CG]c[CG]!<)! c2) z | %21
!p! z!<(! (D[A,E] [DF][EA])!<)!!mf! ([Fd-]!>(! [df]3!>)! e2!pp! _B) | %22
 z!<(! (d[Ae] [df][ea]!<)!!p! [fd'-])!>(! ([d'f']3!>)! e'2 _b-) |[M:6/8]"_dim." ([d'f']3 e'2 _b-) | %24
[M:12/8] ([d'f']6 e'3 _b3 |!pp! [af']3- [af']2) z [A,DF]6- | [A,DF]2 z2 z8 |] %27
V:4
!p! (d |"_ausdrucksvoll und weich" c3 G2 G A3-) A z!<(! (d!<)! |!>(! d3!>)! c2 G A3-) A z A | %3
 [A,=E]3 [A,E]3 [D^FA]3- [DFA] z!p! (d | c3 G2 G A3-) A z (d | c3 G2 G A3-) A2 z || %6
[K:D] ([^D^B]F[DB] F[DB]F [=D=d]^G[Dd] G2) z | ([^D^B]F[DB] F[DB]F [=D=d]^G[Dd] G[Dd]G | %8
[M:6/8] [Cc]^G[Cc] G2) z || %9
[M:12/8][K:bass] ([F,,F,]C,[F,,F,] C,[F,,F,]C, [F,,F,]C,[F,,-F,] [F,,C,]) z2 | %10
 ([F,,F,]D,[F,,F,] D,[F,,F,]D, [G,,G,]D,[G,,-G,] [G,,D,]) z2 | %11
 ([G,,G,]D,[G,,-G,] [G,,D,]) z z (CA,C A,2) z | %12
 [D,,A,,F,]6- [D,,A,,F,]3- [D,,A,,F,]2[K:treble]!p! (d ||[K:Bb] c3 G2 G A3-) A z (d | %14
 c3 G2 G A3-) A2 z ||[K:D] ([^D^B]F[DB] F[DB]F [=D=d]^G[Dd] G2) z | %16
 ([^D^B]F[DB] F[DB]F [=D=d]^G[Dd] G[Dd]G |[M:6/8] [Cc]^G[Cc] G2) z || %18
[M:12/8][K:bass] ([F,,F,]C,[F,,F,] C,[F,,F,]C, [F,,F,]C,[F,,-F,] [F,,C,]) z z | %19
 ([F,,F,]D,[F,,F,] D,[F,,F,]D, [G,,G,]D,[G,,-G,] [G,,D,]) z2 | %20
 ([G,,G,]D,[G,,-G,] [G,,D,]) z z ([A,,A,]E,[A,,-A,] [A,,E,]2) z | %21
 !arpeggio![D,,A,,F,]6 (G,,D,G, DG) z | !arpeggio![D,A,F]6[K:treble] (G,DG dg) z | %23
[M:6/8]"^zart" (G,DG dg) z |[M:12/8][K:bass] (G,,!>(!D,G,[K:treble] _B,DG _Bdg- g3!>)! | %25
 [DAd]3- [DAd]2) z[K:bass] [D,,A,,D,]6- | [D,,A,,D,]2 z2 z8 |] %27
V:5
 x | z2 z (E3 D3-) D x x | z2 z (E3 D3-) D x x | x12 | z2 z (E3 D3-) D x x | z2 z (E3 D3-) D2 x || %6
[K:D] x12 | x12 |[M:6/8] x6 ||[M:12/8][K:bass] x12 | x12 | x2 x x2 x !arpeggio!A,,3- A,,2 x | %12
 x11[K:treble] x ||[K:Bb] z2 z (E3 D3-) D x x | z2 z (E3 D3-) D2 x ||[K:D] x12 | x12 |[M:6/8] x6 || %18
[M:12/8][K:bass] x12 | x12 | x12 | x12 | x6[K:treble] x6 |[M:6/8] x6 | %24
[M:12/8][K:bass] x3[K:treble] x9 | x6[K:bass] x6 | x12 |] %27
V:6
 x | x12 | x12 | x12 | x12 | x12 ||[K:D] x12 | x12 |[M:6/8] x6 ||[M:12/8] x12 | x12 | x12 | x12 || %13
[K:Bb] x12 | x12 ||[K:D] x12 | x12 |[M:6/8] x6 ||[M:12/8] x12 | x12 | x12 | x6 _B6 | x6 _b6 | %23
[M:6/8] b6 |[M:12/8] _b6- b6 | x12 | x12 |] %27

